assets/images/ux-strategy.svg

<svg fill="none" height="128" viewBox="0 0 128 128" width="128" xmlns="http://www.w3.org/2000/svg"><path d="m36 82 6-6m4 0 6 6m4 0 6-6m4 0 6 6m14-10 6-6m-16 16 6-6" stroke="#bdbdbd" stroke-width="2"/><circle cx="34" cy="84" fill="#e0e0e0" r="3" stroke="#444" stroke-width="2"/><circle cx="54" cy="84" fill="#e0e0e0" r="3" stroke="#444" stroke-width="2"/><circle cx="44" cy="74" fill="#e0e0e0" r="3" stroke="#444" stroke-width="2"/><circle cx="64" cy="74" fill="#e0e0e0" r="3" stroke="#444" stroke-width="2"/><circle cx="74" cy="84" fill="#e0e0e0" r="3" stroke="#444" stroke-width="2"/><circle cx="84" cy="74" fill="#e0e0e0" r="3" stroke="#444" stroke-width="2"/><circle cx="94" cy="64" fill="#e0e0e0" r="3" stroke="#444" stroke-width="2"/><g fill="#828282"><path d="m43 81c0-.5523.4477-1 1-1s1 .4477 1 1v1c0 .5523-.4477 1-1 1s-1-.4477-1-1z"/><path d="m63 81c0-.5523.4477-1 1-1s1 .4477 1 1v1c0 .5523-.4477 1-1 1s-1-.4477-1-1z"/><path d="m83 81c0-.5523.4477-1 1-1s1 .4477 1 1v1c0 .5523-.4477 1-1 1s-1-.4477-1-1z"/><path d="m93 81c0-.5523.4477-1 1-1s1 .4477 1 1v1c0 .5523-.4477 1-1 1s-1-.4477-1-1z"/><path d="m93 71c0-.5523.4477-1 1-1s1 .4477 1 1v1c0 .5523-.4477 1-1 1s-1-.4477-1-1z"/><rect height="3" rx="1" width="2" x="43" y="85"/><rect height="3" rx="1" width="2" x="63" y="85"/><rect height="3" rx="1" width="2" x="83" y="85"/><rect height="3" rx="1" width="2" x="93" y="85"/><rect height="3" rx="1" width="2" x="93" y="75"/></g><path d="m26.2929 69.2929c-.3905.3905-.3905 1.0237 0 1.4142s1.0237.3905 1.4142 0zm46.3-5.9111-.7546.6562zm-10.1021-8.1462-.7546-.6562zm-17.5796-.19.7385-.6742zm-17.2041 15.6615 15.0201-15.02-1.4143-1.4143-15.02 15.0201zm16.4656-14.9872 7.5754 8.2968 1.477-1.3485-7.5754-8.2968zm12.0547 8.2426 7.018-8.0707-1.5092-1.3124-7.018 8.0707zm8.5272-8.0707 7.0837 8.1462 1.5092-1.3124-7.0837-8.1462zm11.4688 8.299 21.9837-21.9837-1.4142-1.4142-21.9837 21.9837zm-4.3851-.1528c1.1411 1.3123 3.1554 1.3825 4.3851.1528l-1.4142-1.4142c-.4099.4099-1.0813.3865-1.4617-.051zm-8.5929-8.1462c.3986-.4585 1.1106-.4585 1.5092 0l1.5092-1.3124c-1.1959-1.3753-3.3317-1.3753-4.5276 0zm-11.4973 8.1249c1.2092 1.3244 3.3025 1.299 4.4793-.0542l-1.5092-1.3124c-.3923.4511-1.09.4596-1.4931.0181zm-9.0209-8.3296c.4031-.4032 1.0611-.3882 1.4455.0328l1.477-1.3485c-1.1532-1.2631-3.1274-1.3079-4.3368-.0986z" fill="#444"/><path d="m98 50v-9h-9" stroke="#444" stroke-linecap="round" stroke-width="2"/></svg>

<svg width="128" height="128" viewBox="0 0 128 128" fill="none" xmlns="http://www.w3.org/2000/svg">
<path d="M36 82L42 76M46 76L52 82M56 82L62 76M66 76L72 82M86 72L92 66M76 82L82 76" stroke="#BDBDBD" stroke-width="2"/>
<circle cx="34" cy="84" r="3" fill="#E0E0E0" stroke="#444444" stroke-width="2"/>
<circle cx="54" cy="84" r="3" fill="#E0E0E0" stroke="#444444" stroke-width="2"/>
<circle cx="44" cy="74" r="3" fill="#E0E0E0" stroke="#444444" stroke-width="2"/>
<circle cx="64" cy="74" r="3" fill="#E0E0E0" stroke="#444444" stroke-width="2"/>
<circle cx="74" cy="84" r="3" fill="#E0E0E0" stroke="#444444" stroke-width="2"/>
<circle cx="84" cy="74" r="3" fill="#E0E0E0" stroke="#444444" stroke-width="2"/>
<circle cx="94" cy="64" r="3" fill="#E0E0E0" stroke="#444444" stroke-width="2"/>
<path d="M43 81C43 80.4477 43.4477 80 44 80C44.5523 80 45 80.4477 45 81V82C45 82.5523 44.5523 83 44 83C43.4477 83 43 82.5523 43 82V81Z" fill="#828282"/>
<path d="M63 81C63 80.4477 63.4477 80 64 80C64.5523 80 65 80.4477 65 81V82C65 82.5523 64.5523 83 64 83C63.4477 83 63 82.5523 63 82V81Z" fill="#828282"/>
<path d="M83 81C83 80.4477 83.4477 80 84 80C84.5523 80 85 80.4477 85 81V82C85 82.5523 84.5523 83 84 83C83.4477 83 83 82.5523 83 82V81Z" fill="#828282"/>
<path d="M93 81C93 80.4477 93.4477 80 94 80C94.5523 80 95 80.4477 95 81V82C95 82.5523 94.5523 83 94 83C93.4477 83 93 82.5523 93 82V81Z" fill="#828282"/>
<path d="M93 71C93 70.4477 93.4477 70 94 70C94.5523 70 95 70.4477 95 71V72C95 72.5523 94.5523 73 94 73C93.4477 73 93 72.5523 93 72V71Z" fill="#828282"/>
<rect x="43" y="85" width="2" height="3" rx="1" fill="#828282"/>
<rect x="63" y="85" width="2" height="3" rx="1" fill="#828282"/>
<rect x="83" y="85" width="2" height="3" rx="1" fill="#828282"/>
<rect x="93" y="85" width="2" height="3" rx="1" fill="#828282"/>
<rect x="93" y="75" width="2" height="3" rx="1" fill="#828282"/>
<path d="M26.2929 69.2929C25.9024 69.6834 25.9024 70.3166 26.2929 70.7071C26.6834 71.0976 27.3166 71.0976 27.7071 70.7071L26.2929 69.2929ZM72.5929 63.3818L71.8383 64.038L72.5929 63.3818ZM62.4908 55.2356L61.7362 54.5794L62.4908 55.2356ZM44.9112 55.0456L45.6497 54.3714L44.9112 55.0456ZM27.7071 70.7071L42.7272 55.6871L41.3129 54.2728L26.2929 69.2929L27.7071 70.7071ZM44.1727 55.7199L51.7481 64.0167L53.2251 62.6682L45.6497 54.3714L44.1727 55.7199ZM56.2274 63.9625L63.2454 55.8918L61.7362 54.5794L54.7182 62.6501L56.2274 63.9625ZM64.7546 55.8918L71.8383 64.038L73.3475 62.7256L66.2638 54.5794L64.7546 55.8918ZM76.2234 64.1908L98.2071 42.2071L96.7929 40.7929L74.8092 62.7766L76.2234 64.1908ZM71.8383 64.038C72.9794 65.3503 74.9937 65.4205 76.2234 64.1908L74.8092 62.7766C74.3993 63.1865 73.7279 63.1631 73.3475 62.7256L71.8383 64.038ZM63.2454 55.8918C63.644 55.4333 64.356 55.4333 64.7546 55.8918L66.2638 54.5794C65.0679 53.2041 62.9321 53.2041 61.7362 54.5794L63.2454 55.8918ZM51.7481 64.0167C52.9573 65.3411 55.0506 65.3157 56.2274 63.9625L54.7182 62.6501C54.3259 63.1012 53.6282 63.1097 53.2251 62.6682L51.7481 64.0167ZM42.7272 55.6871C43.1303 55.2839 43.7883 55.2989 44.1727 55.7199L45.6497 54.3714C44.4965 53.1083 42.5223 53.0635 41.3129 54.2728L42.7272 55.6871Z" fill="#444444"/>
<path d="M98 50V41H89" stroke="#444444" stroke-width="2" stroke-linecap="round"/>
</svg>
